!!!!SEGMENT: pl-wnifc--6827-n_dietrich-moritz--polka-elegante-op-28.krn
!!!cenid: 18xx:4062
!!!COM: Dietrich, Moritz
!!!COM-rismID: pe40205597
!!!CDT: 1816-1887
!!!CNT:
!!!OTL: Polka Elégante op. 28
!!!PDT:
!!!AGN:
!!!YEC: Copyright 2022 Narodowy Instytut Fryderyka Chopina (https://polishscores.org)
!!!YEM: License CC-BY-4.0 (https://creativecommons.org/licenses/by/4.0)
!!!SMS-siglum: PL-Wnifc
!!!SMS-shelfmark: 6827/n
!!!SMS-shelfwork: W
!!!SMS-variant:
!!!SMS-altvar:
!!!NIFC-rismSourceID: 1001159665
!!!NIFC-rismChildID: 1001159665
!!!NIFC-islandoraID: nifc:213775
!!!URL-pdf-islandora: https://repozytorium.nifc.pl/islandora/object/nifc%3A213775/datastream/PDF/view
!!!URL-scan: https://polish.musicsources.pl/pl/lokalizacje/galeria/druki-muzyczne/16944-polka-elegante/2 @EN{Scan on Polish Music Sources Website} @PL{Skany w portalu Dziedzictwo Muzyki Polskiej w otwartym dostępie}
!!!IIIF:
!!!ONB-nifc: UWAGA: Polka, Trio i Finale w jednym pliku
!!!OMD: Tempo moderato.
!!!AIN: 1 piano
!!!key: D-
**kern	**kern	**dynam
*part1	*part1	*
*staff2	*staff1	*
*>[A,B,B,C,D,E,E,F,G]	*>[A,B,B,C,D,E,E,F,G]	*
*>A	*>A	*
*I"PIANO-FORTE	*I"PIANO-FORTE	*
*I'	*I'	*
*Ipiano	*Ipiano	*
*ICklav	*ICklav	*
*clefF4	*clefG2	*
*k[b-e-a-d-g-]	*k[b-e-a-d-g-]	*
*D-:	*D-:	*
*M2/4	*M2/4	*
=1	=1	=1
!	!LO:TX:a:B:t=POLKA.	!
.	(16qqa-/LL	.
.	16qqb-/JJ)	.
8D-L 8DD-'\	(16a-/LL	p
.	16gn/	.
8d-J 8A- 8F'\	16a-/	.
.	16f/JJ)	.
8d-L 8A- 8F'\	8dd-'\L	.
8d-J 8A- 8F'\	8dd-'\J	.
=2	=2	=2
(8GG-\L	(8dd-/L	.
8B-J 8G-\)	8e-/J)	.
.	8qf/	.
(16B-LL 16G-\	(16e-/LL	.
16An\J	16dn/J	.
8B-J 8G-\)	8e-/J)	.
=3	=3	=3
.	(16qqa-/LL	.
.	16qqb-/JJ)	.
8AA-'\L	(16a-/LL	.
.	16gn/	.
8cJ 8A- 8G-'\	16a-/	.
.	16g-X/JJ)	.
8AA-'\L	8ee-'\L	.
8cJ 8A- 8G-'\	8ff'\J	.
=4	=4	=4
(8D-L 8DD-\	(8ee-/L	.
8d-J 8A- 8F\)	8dd-J 8f/)	.
(16d-LL 16F\	(16dd-LL 16f/	.
16c\J	16cc/J	.
8B-J 8F\)	8b-J 8f/)	.
!!LO:LB:g=original
=5	=5	=5
.	(16qqa-/LL	.
.	16qqb-/JJ)	.
8D-L 8DD-'\	(16a-/LL	.
.	16gn/	.
8d-J 8A- 8F'\	16a-/	.
.	16f/JJ)	.
8d-L 8A- 8F'\	8dd-'\L	.
8d-J 8A- 8F'\	8dd-'\J	.
=6	=6	=6
(8GG-\L	(8dd-/L	.
8B-J 8G-\)	8e-/J)	.
.	8qf/	.
(16B-LL 16G-\	(16e-/LL	.
16An\J	16dn/J	.
8B-J 8G-\)	8e-/J)	.
=7	=7	=7
.	(16qqa-/LL	.
.	16qqb-/JJ)	<
8AA-'\L	(16a-/LL	.
.	16gn/	.
8cJ 8A- 8G-'\	16a-/	.
.	16b-/JJ	.
8AA-'\L	16cc\LL	.
.	16dd-\	.
8cJ 8A- 8G-'\	16ee-\	.
.	16ff\JJ)	.
=9	=8	=8
8D- 8DD-'/	8dd-'\	f
(16d-LL 16A- 16F\	(16dd-LL 16f\	.
16c\J	16cc\J	.
8d-J 8F 8D-\)	8dd-J 8f\)	.
=|!	=|!	=|!
*>B	*>B	*
*k[b-e-a-d-]	*k[b-e-a-d-]	*
8r	(16ccLL 16e-/	.
.	16dd-JJ 16f/)	.
=9	=9	=9
8E- 8EE-'/	8b- 8d-'/	fz
(16GLL 16E-\	(16e-LL 16d-/	.
16F#X\J	16dn/J	.
8GJ 8E-\)	8e-J 8d-X/)	.
8E- 8EE-'/	(16b-LL 16d-/	.
.	16ccJJ 16e-/)	.
!!LO:LB:g=original
=10	=10	=10
8E- 8EE-'/	8a- 8c'/	fz
(16A-LL 16E-\	(16e-LL 16c/	.
16G\J	16dn/J	.
8A-J 8E-\)	8e-J 8c/)	.
8E- 8EE-'/	(16gLL 16e-/	.
.	16a-JJ 16f/)	.
=11	=11	=11
8E-L 8EE-'\	8b-L 8g'\	.
8d-J 8B- 8E-'\	8cc 8a-'\	.
8E-L 8EE-'\	8dd- 8b-'\	.
8d-J 8B- 8E-'\	8ddnJ 8bn'\	.
=12	=12	=12
8E-L 8EE-\	(8ffML 8dd-\	.
8cJ 8A- 8E-\	8ee-J 8cc\)	.
8c 8A- 8E-\	8aa- 8cc'\	.
8r	(16ccLL 16e-/	.
.	16dd-JJ 16f/)	.
=13	=13	=13
8E- 8EE-'/	8b- 8d-'/	fz
(16GLL 16E-\	(16e-LL 16d-/	.
16F#X\J	16dn/J	.
8GJ 8E-\)	8e-J 8d-X/)	.
8E- 8EE-'/	(16b-LL 16d-/	.
.	16ccJJ 16e-/)	.
=14	=14	=14
8A- 8AA-'\	8a- 8c'/	fz
(16A-LL 16E-\	(16e-LL 16c/	.
16G\J	16dn/J	.
8A-J 8E-\)	8e-J 8c/)	.
8d- 8A- 8F'\	(16aa-\LL	.
.	16a-\JJ)	.
!!LO:LB:g=original
=15	=15	=15
8cL 8A- 8E-\	8aa-'\L	f
8Bn 8A- 8Dn\	(16aa-\L	.
.	16a-\JJ)	.
8c 8A- 8E-\	8aa-'\L	.
8dnJ 8A- 8E-\	(16ggL 16a-\	.
.	16ff\JJ)	.
=16	=16	=16
8d-XL 8B- 8E-\	(16ffLL 16g\	.
.	16ee-\	.
8E-J 8EE-\	16b-\	.
.	16cc\JJ)	.
8A- 8AA-'\	8a- 8c'/	.
8r	8r	.
=17:|!	=17:|!	=17:|!
*>C	*>C	*
*k[b-e-a-d-g-]	*k[b-e-a-d-g-]	*
.	(16qqa-/LL	.
.	16qqb-/JJ)	.
8D-L 8DD-'\	(16a-/LL	p
.	16gn/	.
8d-J 8A- 8F'\	16a-/	.
.	16f/JJ)	.
8d-L 8A- 8F'\	8dd-'\L	.
8d-J 8A- 8F'\	8dd-'\J	.
=18	=18	=18
(8GG-\L	(8dd-\L	.
8B-J 8G-\)	8e-\J)	.
.	8qf/	.
(16B-LL 16G-\	(16e-/LL	.
16An\J	16dn/J	.
8B-J 8G-\)	8e-/J)	.
=19	=19	=19
.	(16qqa-/LL	.
.	16qqb-/JJ)	.
8AA-'\L	(16a-/LL	.
.	16gn/	.
8cJ 8A- 8G-'\	16a-/	.
.	16g-X/JJ)	.
8AA-'\L	8ee-'\L	.
8cJ 8A- 8G-'\	8ff'\J	.
!!LO:LB:g=original
=20	=20	=20
(8D-L 8DD-\	(8ee-/L	.
8d-J 8A- 8F\)	8dd-J 8f/)	.
(16d-LL 16F\	(16dd-LL 16f/	.
16c\J	16cc/J	.
8B-J 8F\)	8b-J 8f/)	.
=21	=21	=21
.	(16qqa-/LL	.
.	16qqb-/JJ)	.
8D-L 8DD-'\	16a-/LL	.
.	16gn/	.
8d-J 8A- 8F'\	16a-/	.
.	16f/JJ	.
8d-L 8A- 8F'\	8dd-'\L	.
8d-J 8A- 8F'\	8dd-'\J	.
=22	=22	=22
(8GG-\L	(8dd-/L	.
8B-J 8G-\)	8e-/J)	.
.	8qf/	.
(16B-LL 16G-\	(16e-/LL	.
16A-\J	16dn/J	.
8B-J 8G-\)	8e-/J)	.
=23	=23	=23
.	(16qqa-/LL	.
.	16qqb-/JJ)	.
8AA-'\L	(16a-/LL	<
.	16gn/	.
8cJ 8A- 8G-'\	16a-/	.
.	16b-/JJ	.
8AA-'\L	16cc\LL	.
.	16dd-\	.
8cJ 8A- 8G-'\	16ee-\	.
.	16ff\JJ)	.
=24	=24	=24
8D- 8DD-'/	8dd-'\	.
(16d-LL 16A- 16F\	(16dd-LL 16f\	.
16c\J	16cc\J	.
8d-J 8A- 8F\)	8dd-J 8f\)	.
8r	8r	.
!!LO:PB:g=original
=25|!	=25|!	=25|!
!!!OMD: con energico.
*>D	*>D	*
*k[b-e-a-d-g-c-]	*k[b-e-a-d-g-c-]	*
*M2/4	*M2/4	*
!	!LO:TX:a:B:t=TRIO.	!
(8D-L 8BB- 8GG-\	(8dd-L 8b- 8d-^\	f
8G-\J)	8gg-J 8g-\)	.
(8E-L 8C- 8GG-\	(16cc-LL 16c-\	.
.	16dd-J 16d-\)	.
8G-\J)	8ee-J 8e-'\	.
=26	=26	=26
(8D-L 8BB- 8GG-\	(8dd-L 8b- 8d-^\	.
8G-\J)	8gg-J 8g-\)	.
(8E-L 8C- 8GG-\	(16cc-LL 16c-\	.
.	16dd-J 16d-\)	.
8G-\J)	8ee-J 8e-'\	.
=27	=27	=27
(8D-L 8BB- 8GG-\	8dd-L 8b- 8d-'\	.
!	!	!LO:HP:t=crescendo.
8G-\J)	(16ee-L 16e-\	<
.	16ffJJ 16f\)	.
(8G-L 8D- 8BB-\	(16gg-LL 16g-\	.
.	16aa- 16a-\	.
8B-\J)	16bb- 16b-\	.
.	16eee-JJ 16ee-\)	.
=28	=28	=28
8D-L 8DD-\	8ddd-L 8dd-'\	.
8c-J 8A- 8F 8D-\	(16ccc-L 16cc-\	.
.	16bb-JJ 16b-\)	.
4c- 4A- 4F 4D-\	(16aa-LL 16a-\	.
.	16ggnJ 16gn\	.
.	8aa-J 8a-\)	.
!!LO:LB:g=original
=29	=29	=29
!	!	!LO:DY:rj
(8D-L 8BB- 8GG-\	(8dd-L 8b- 8d-^\	f
8G-\J)	8gg-J 8g-\)	.
(8E-L 8C- 8GG-\	(16cc-LL 16c-\	.
.	16dd-J 16d-\)	.
8G-\J)	8ee-J 8e-'\	.
=30	=30	=30
(8D-L 8BB- 8GG-\	(8dd-L 8b- 8d-^\	.
8G-\J)	8gg-J 8g-\)	.
(8E-L 8C- 8GG-\	(16cc-LL 16c-\	.
.	16dd-J 16d-\)	.
8G-\J)	8ee-J 8e-'\	.
=31	=31	=31
(8D-L 8BB- 8GG-\	8dd-L 8b- 8d-'\	.
8G-\J)	(16ee-L 16e-\	<
.	16ffJJ 16f\)	.
(8G-L 8D- 8BB-\	(16gg-LL 16g-\	.
.	16aa- 16a-\	.
8B-\J)	16bb- 16b-\	.
.	16eee-JJ 16ee-\)	.
=32	=32	=32
(8D-L 8DD-\	8ddd-L 8dd-'\	.
8c-J 8F 8D-\)	(16aa-L 16a-\	.
.	16bb-JJ 16b-\)	.
8B- 8G-'\	8gg- 8g-'\	.
8r	8r	.
=33|!	=33|!	=33|!
*>E	*>E	*
*k[b-e-a-d-g-]	*k[b-e-a-d-g-]	*
8AA-L 8AAA-^/	8a-L 8e- 8c^/	ff
8GGn 8AAA-^/	8gn 8e- 8c^/	.
8AA-J 8AAA-^/	8a-J 8e- 8c^/	.
8r	(16aa-\LL	.
.	16bb-\JJ)	.
!!LO:LB:g=original
=34	=34	=34
*	*ped	*
!	!	!LO:DY:b
8D-L 8DD-\	(16aa-M\LL	p
.	16ff\	.
8d-J 8A- 8F\	16dd-\	.
.	16a-\JJ)	.
4A- 4F 4D-\	(16f\LL	.
.	16dd-\	.
.	16cc\	.
*	*Xped	*
.	16b-\JJ)	.
=35	=35	=35
8A-L 8E- 8AA-\	8a-L 8e- 8c^/	ff
8Gn 8E- 8AA-\	8gn 8e- 8c^/	.
8A-J 8E- 8AA-\	8a-J 8e- 8c^/	.
8r	(16ee-\LL	.
.	16ff\JJ)	.
=36	=36	=36
*	*ped	*
!	!	!LO:DY:b
8D-L 8DD-\	(16ee-M\LL	p
.	16dd-\	.
8d-J 8A- 8F\	16a-\	.
.	16f\JJ)	.
4A- 4F 4D-\	(16d-\LL	.
.	16dd-\	.
.	16cc\	.
*	*Xped	*
.	16b-\JJ)	.
=37	=37	=37
8AA-L 8AAA-^/	8a-L 8e- 8c^/	ff
8GGn 8AAA-^/	8gn 8e- 8c^/	.
8AA-J 8AAA-^/	8a-J 8e- 8c^/	.
8r	(16aa-\LL	.
.	16bb-\JJ)	.
=38	=38	=38
*	*ped	*
!	!	!LO:DY:b
8D-L 8DD-\	(16aa-M\LL	p
.	16ff\	.
8d-J 8A- 8F\	16dd-\	.
.	16a-\JJ)	.
4A- 4F 4D-\	(16f/LL	.
.	16d-/	.
.	16f/	.
*	*Xped	*
.	16dd-/JJ)	.
!!LO:LB:g=original
=39	=39	=39
!	!	!LO:DY:rj
8AnL 8Dn 8FF#X\	8ddnL 8f#X 8dn^\	ff
8A 8D 8FF#\	8an 8f# 8d^\	.
8A 8D 8FF#\	8ddJ 8f# 8d^\	.
8B-J 8E- 8GGn\	(16ee-LL 16b- 16e-\	.
.	16dd-X\JJ)	.
=40	=40	=40
8cL 8E- 8AA-\	(16aa-LL 16cc 16g-\	.
.	16gg-\	.
8cJ 8A-\	16ee-\	.
.	16ff\JJ)	.
8d- 8A- 8D-\	8dd- 8f'\	.
8r	8r	.
=41:|!	=41:|!	=41:|!
*>F	*>F	*
*k[b-e-a-d-g-c-]	*k[b-e-a-d-g-c-]	*
!	!	!LO:DY:rj
(8D-L 8BB- 8GG-\	8dd-L 8b- 8d-^\	f
8G-\J)	8gg-J 8g-\	.
(8E-L 8C- 8GG-\	(16cc-LL 16c-\	.
.	16dd-J 16d-\	.
8G-\J)	8ee-J 8e-\)	.
=42	=42	=42
(8D-L 8BB- 8GG-\	(8dd-L 8b- 8d-^\	.
8G-\J)	8gg-J 8g-\)	.
(8E-L 8C- 8GG-\	(16cc-LL 16c-\	.
.	16dd-J 16d-\)	.
8G-\J)	8ee-J 8e-'\	.
=43	=43	=43
(8D-L 8BB- 8GG-\	8dd-L 8b- 8d-'\	.
8G-\J)	(16ee-L 16e-\	<
.	16ffJJ 16f\)	.
(8G-L 8D- 8BB-\	(16gg-LL 16g-\	.
.	16aa- 16a-\	.
8B-\J)	16bb- 16b-\	.
.	16eee-JJ 16ee-\)	.
!!LO:LB:g=original
=44	=44	=44
8D-L 8DD-\	8ddd-L 8dd-'\	.
8c-J 8A- 8F 8D-\	(16ccc-L 16cc-\	.
.	16bb-JJ 16b-\)	.
4c- 4A- 4F 4D-\	(16aa-LL 16a-\	.
.	16ggnJ 16gn\	.
.	8aa-J 8a-\)	.
=45	=45	=45
(8D-L 8BB- 8GG-\	(8dd-L 8b- 8d-^\	f
8G-\J)	8gg-J 8g-\)	.
(8E-L 8C- 8GG-\	(16cc-LL 16c-\	.
.	16dd-J 16d-\)	.
8G-\J)	8ee-J 8e-'\	.
=46	=46	=46
(8D-L 8BB- 8GG-\	(8dd-L 8b- 8d-^\	.
8G-\J)	8gg-J 8g-\)	.
(8E-L 8C- 8GG-\	(16cc-LL 16c-\	.
.	16dd-J 16d-\)	.
8G-\J)	8ee-J 8e-'\	.
=47	=47	=47
(8D-L 8BB- 8GG-\	8dd-L 8b- 8d-'\	.
8G-\J)	(16ee-L 16e-\	<
.	16ffJJ 16f\)	.
(8G-L 8D- 8BB-\	(16gg-LL 16g-\	.
.	16aa- 16a-\	.
8B-\J)	16bb- 16b-\	.
.	16eee-JJ 16ee-\)	.
=48	=48	=48
8D-L 8DD-\	8ddd-L 8dd-'\	.
8c-J 8F 8D-\	(16aa-L 16a-\	.
.	16bb-JJ 16b-\)	.
8B- 8G-'\	8gg- 8g-'\	.
8r	8r	.
!!LO:PB:g=original
=49|!	=49|!	=49|!
!!!OMD: moderato.
*>G	*>G	*
*k[b-e-a-d-g-]	*k[b-e-a-d-g-]	*
.	(16qqa-/LL	.
!	!LO:TX:a:B:t=FINALE.	!
.	16qqb-/JJ)	.
8D-L 8DD-\	(16a-/LL	p
.	16gn/	.
8d-J 8A- 8F\	16a-/	.
.	16f/JJ)	.
8d-L 8A- 8F\	8dd-'\L	.
8d-J 8A- 8F\	8dd-'\J	.
=50	=50	=50
8GG-\L	(8dd-/L	.
8B-J 8G-\	8e-/J)	.
.	8qf/	.
16B-LL 16G-\	(16e-/LL	.
16An\J	16dn/J	.
8B-J 8G-\	8e-/J)	.
=51	=51	=51
.	(16qqa-/LL	.
.	16qqb-/JJ)	.
8AA-\L	(16a-/LL	.
.	16gn/	.
8cJ 8A- 8G-\	16a-/	.
.	16g-X/JJ)	.
8AA-\L	8ee-'\L	.
8cJ 8A- 8G-\	8ff'\J	.
!!LO:LB:g=original
=52	=52	=52
(8D-L 8DD-\	(8ee-/L	.
8d-J 8A- 8F\)	8dd-J 8f/)	.
(16d-LL 16F\	(16dd-LL 16f/	.
16c\J	16cc/J	.
8B-J 8F\)	8b-J 8f/)	.
=53	=53	=53
.	(16qqa-/LL	.
.	16qqb-/JJ)	.
8D-L 8DD-\	(16a-/LL	.
.	16gn/	.
8d-J 8A- 8F\	16a-/	.
.	16f/JJ)	.
8d-L 8A- 8F\	8dd-'\L	.
8d-J 8A- 8F\	8dd-'\J	.
=54	=54	=54
(8GG-\L	(8dd-/L	.
8B-J 8G-\)	8e-/J)	.
.	8qf/	.
(16B-LL 16G-\	(16e-/LL	.
16An\J	16dn/J	.
8B-J 8G-\)	8e-/J)	.
=55	=55	=55
.	(16qqa-/LL	.
.	16qqb-/JJ)	.
!	!	!LO:HP:t=crescendo.
8AA-\L	(16a-/LL	<
.	16gn/	.
8cJ 8A- 8G-\	16a-/	.
.	16b-/JJ)	.
8AA-\L	(16cc\LL	.
.	16dd-\	.
8cJ 8A- 8G-\	16ee-\	.
.	16ff\JJ)	.
!!LO:LB:g=original
=56	=56	=56
!	!LO:TX:b:t=leggiero.	!
8D-'\L	8dd-'\L	.
8d-J 8A- 8F'\	(16bb-\L	.
.	16aa-\JJ)	.
8AA-'\L	(8dd-L 8f\	.
8d-J 8A- 8F'\	16cc\L	.
.	16dd-\JJ)	.
=57	=57	=57
8E-'\L	8ccL 8g-'\	.
8cJ 8A- 8G-'\	(16bb-\L	.
.	16aa-\JJ)	.
8AA-'\L	(8ee-L 8g-\	.
8cJ 8A- 8G-'\	16dd-\L	.
.	16ee-\JJ)	.
=58	=58	=58
8D-'\L	8ffL 8dd- 8f'\	.
8d-J 8A- 8F'\	(16bb-\L	.
.	16aa-\JJ)	.
8AA-'\L	(8dd-L 8f\	.
8d-J 8A- 8F'\	16cc\L	.
.	16dd-\JJ)	.
=59	=59	=59
8E-'\L	8ccL 8g-'\	.
8cJ 8A- 8G-'\	(16bb-\L	.
.	16aa-\JJ)	.
8AA-'\L	(8ee-L 8g-\	.
8cJ 8A- 8G-'\	16dd-\L	.
.	16ee-\JJ)	.
!!LO:LB:g=original
=60	=60	=60
8D-'\L	8ffL 8dd- 8f'\	.
8fJ 8d- 8A-'\	(16eee-L 16gg-\	.
.	16ddd-JJ 16ff\)	.
8D-L 8DD-'\	8ccc-XL 8ee-'\	.
8fJ 8d- 8A-'\	(16bb-L 16dd-\	.
.	16aa-JJ 16cc-X\)	.
=61	=61	=61
8G-L 8GG-'\	8gg-L 8b-'\	.
8e-J 8B- 8G-'\	(16bb-L 16dd-\	.
.	16aa-JJ 16cc-X\)	.
8E-L 8EE-'\	8gg-L 8b-'\	.
8e-J 8B- 8G-'\	(16ffL 16a-\	.
.	16ee-JJ 16g-\)	.
=62	=62	=62
8A- 8F 8AA-'\	8dd-L 8f'/	fz
8r	(16en/L	.
.	16f/JJ)	.
8Gn 8E- 8GGn'\	8b-L 8d-'/	fz
8r	(16dn/L	.
.	16e/JJ)	.
=63	=63	=63
8F 8AA-'\	8a-L 8d-X'/	fz
8r	(16g-L 16B-/	.
.	16fJJ 16A-/)	.
8AA- 8AAA-'/	(16e-LL 16G-/	.
.	16fJ 16A-/	.
8r	8e-J 8G-/)	.
=64	=64	=64
(8D-L 8DD-/	8d-L 8F'/	.
8AA-/J)	(16A-/L	.
.	16f/JJ)	.
(8CL 8DD-/	8e-L 8G-'/	.
8AA-/J)	(16A-/L	.
.	16a-/JJ)	.
!!LO:LB:g=original
=65	=65	=65
(8D-L 8DD-/	8d-L 8F'/	.
8AA-/J)	(16A-/L	.
.	16f/JJ)	.
(8CL 8DD-/	8e-L 8G-'/	.
8AA-/J)	(16A-/L	.
.	16a-/JJ)	.
=66	=66	=66
!	!	!LO:DY:rj
8D- 8DD-'/	8d-L 8F'/	fz
8r	(16A-/L	.
.	16f/JJ)	.
!	!	!LO:DY:rj
8AA- 8AAA-'/	8d-L 8F'/	fz
8r	(16A-/L	.
.	16f/JJ)	.
=67	=67	=67
!	!	!LO:DY:rj
8FF 8FFF'/	8d-L 8F'/	fz
8r	(16A-/L	.
.	16f/JJ)	.
!	!	!LO:DY:rj
8AA- 8AAA-'/	8d-L 8F'/	fz
8r	(16A-/L	.
.	16f/JJ)	.
=68	=68	=68
!	!	!LO:DY:rj
8DD- 8DDD-'/	8d- 8F'/	fz
8r	8r	.
4r	4r	.
=69	=69	=69
8d- 8A- 8F 8D-'\	8ddd- 8aa- 8ff 8dd-'\	ff
8r	8r	.
4r	4r	.
==	==	==
*-	*-	*-
!!!system-decoration: {(*)}
!!!ENC: Filip Voros
!!!END: 2022-08-16
!!!ENC: Andrzej Kubiczek
!!!END: 2022-09-17
